icons/mail-star-line.svg

<svg xmlns="http://www.w3.org/2000/svg" width="24" height="24" fill="none"><g clip-path="url(#a)"><g><path fill="#121212" d="M22 13H20V7.238L12.072 14.338L4 7.216V19H14V21H3C2.73478 21 2.48043 20.8946 2.29289 20.7071C2.10536 20.5196 2 20.2652 2 20V4C2 3.73478 2.10536 3.48043 2.29289 3.29289C2.48043 3.10536 2.73478 3 3 3H21C21.2652 3 21.5196 3.10536 21.7071 3.29289C21.8946 3.48043 22 3.73478 22 4V13ZM4.511 5L12.061 11.662L19.502 5H4.511ZM19.5 21.75L16.855 23.14L17.36 20.195L15.22 18.109L18.177 17.679L19.5 15L20.823 17.68L23.78 18.11L21.64 20.195L22.145 23.141L19.5 21.75Z"/></g></g><defs><clipPath id="a"><rect width="24" height="24" fill="white"/></clipPath></defs></svg>

<svg width="24" height="24" fill="none" xmlns="http://www.w3.org/2000/svg"><g clip-path="url(#a)"><path d="M22 13h-2V7.238l-7.928 7.1L4 7.216V19h10v2H3a1 1 0 0 1-1-1V4a1 1 0 0 1 1-1h18a1 1 0 0 1 1 1v9ZM4.511 5l7.55 6.662L19.502 5H4.511ZM19.5 21.75l-2.645 1.39.505-2.945-2.14-2.086 2.957-.43L19.5 15l1.323 2.68 2.957.43-2.14 2.085.505 2.946L19.5 21.75Z" /></g><defs><clipPath id="a"><path fill="#fff" d="M0 0h24v24H0z"/></clipPath></defs></svg>
